src/lib/packages/icons/src/assets/line/flask-round.svg

<svg width="24" height="24" viewBox="0 0 24 24" fill="none" xmlns="http://www.w3.org/2000/svg">
<path d="M15.647 8.16602C15.402 8.03702 15.25 7.78596 15.25 7.51196V3.75H16C16.414 3.75 16.75 3.414 16.75 3C16.75 2.586 16.414 2.25 16 2.25H8C7.586 2.25 7.25 2.586 7.25 3C7.25 3.414 7.586 3.75 8 3.75H8.75V7.51196C8.75 7.78596 8.59805 8.03699 8.35205 8.16699C5.82205 9.50799 4.25 12.126 4.25 15C4.25 17.143 5.104 19.1339 6.651 20.6069L6.80005 20.752C7.45605 21.39 7.90696 21.751 9.55896 21.751H14.4399C16.0909 21.751 16.543 21.39 17.199 20.752L17.347 20.6079C18.896 19.1349 19.749 17.143 19.749 15.001C19.75 12.125 18.179 9.50702 15.647 8.16602ZM9.05396 9.49194C9.79195 9.10094 10.25 8.34296 10.25 7.51196V3.75H13.75V7.51196C13.75 8.34296 14.2079 9.10194 14.9449 9.49194C16.7029 10.4239 17.8829 12.124 18.174 14.061C17.3759 14.458 15.183 15.2521 12.334 13.8291C9.62198 12.4721 7.35398 12.795 6.00098 13.251C6.46398 11.657 7.54596 10.2909 9.05396 9.49194ZM16.313 19.521L16.153 19.676C15.699 20.117 15.5619 20.25 14.4399 20.25H9.55896C8.43696 20.25 8.29995 20.117 7.84595 19.676L7.68506 19.521C6.43706 18.333 5.74902 16.729 5.74902 15C5.74902 14.992 5.75098 14.9841 5.75098 14.9771C6.47598 14.5971 8.71694 13.6989 11.6639 15.1709C13.1189 15.8989 14.446 16.1431 15.573 16.1431C16.665 16.1431 17.563 15.9129 18.212 15.6709C18.059 17.1399 17.399 18.488 16.313 19.521Z" fill="currentColor"/>
</svg>

<svg xmlns="http://www.w3.org/2000/svg" width="24" height="24" fill="none"><path fill="currentColor" d="M15.647 8.166a.739.739 0 0 1-.397-.654V3.75H16a.75.75 0 0 0 0-1.5H8a.75.75 0 0 0 0 1.5h.75v3.762a.74.74 0 0 1-.398.655A7.712 7.712 0 0 0 4.25 15c0 2.143.854 4.134 2.401 5.607l.149.145c.656.638 1.107.999 2.759.999h4.88c1.652 0 2.104-.361 2.76-.999l.148-.144A7.667 7.667 0 0 0 19.749 15a7.707 7.707 0 0 0-4.102-6.835ZM9.054 9.492a2.237 2.237 0 0 0 1.196-1.98V3.75h3.5v3.762c0 .831.458 1.59 1.195 1.98a6.202 6.202 0 0 1 3.229 4.569c-.798.397-2.991 1.191-5.84-.232-2.712-1.357-4.98-1.034-6.333-.578a6.202 6.202 0 0 1 3.053-3.76Zm7.259 10.029-.16.155c-.454.441-.591.574-1.713.574H9.559c-1.122 0-1.259-.133-1.713-.574l-.16-.155A6.183 6.183 0 0 1 5.748 15l.002-.023c.725-.38 2.966-1.278 5.913.194 1.455.728 2.782.972 3.909.972 1.092 0 1.99-.23 2.639-.472a6.16 6.16 0 0 1-1.899 3.85Z"/></svg>
